packages/elvis-assets-icons/icons/svg/src/mail_send-color.svg

<svg width="27" height="24" viewBox="0 0 27 24" fill="none" xmlns="http://www.w3.org/2000/svg">
<g clip-path="url(#clip0)">
<path d="M2.43847 17.63C1.09352 17.63 0 16.621 0 15.38V3.38C0 2.139 1.09352 1.13 2.43847 1.13H21.9462C23.2912 1.13 24.3847 2.139 24.3847 3.38V12.38C24.3847 12.794 24.0205 13.13 23.5718 13.13C23.1232 13.13 22.759 12.794 22.759 12.38V3.633L14.9017 9.176C14.1518 9.796 13.1905 10.136 12.1923 10.136C11.1942 10.136 10.2329 9.795 9.48293 9.176L1.62564 3.635V15.38C1.62564 15.794 1.98979 16.13 2.43847 16.13H8.94105C9.38972 16.13 9.75387 16.466 9.75387 16.88C9.75387 17.294 9.38972 17.63 8.94105 17.63H2.43847ZM10.4962 8.00301C10.5147 8.017 10.532 8.03 10.5494 8.044C11.0034 8.425 11.5865 8.635 12.1923 8.635C12.7982 8.635 13.3812 8.425 13.8353 8.044C13.8505 8.031 13.8689 8.017 13.8873 8.004L21.5062 2.63H2.87739L10.4962 8.00301Z" fill="black"/>
<path d="M18.6949 22.88C18.5692 22.88 18.4424 22.852 18.3308 22.801C18.0544 22.673 17.8821 22.416 17.8821 22.13V20.63H13.818C12.473 20.63 11.3795 19.621 11.3795 18.38V16.88C11.3795 15.639 12.473 14.63 13.818 14.63H17.8821V13.13C17.8821 12.844 18.0544 12.587 18.3319 12.459C18.4446 12.407 18.5692 12.38 18.6949 12.38C18.8694 12.38 19.0428 12.433 19.1826 12.53L25.6863 17.03C25.89 17.171 26.0114 17.395 26.0114 17.63C26.0114 17.865 25.89 18.089 25.6863 18.23L19.1837 22.73C19.0428 22.827 18.8694 22.88 18.6949 22.88ZM13.818 16.13C13.3693 16.13 13.0052 16.466 13.0052 16.88V18.38C13.0052 18.794 13.3693 19.13 13.818 19.13H18.6949C19.1436 19.13 19.5077 19.466 19.5077 19.88V20.63L23.8428 17.63L19.5077 14.63V15.38C19.5077 15.794 19.1436 16.13 18.6949 16.13H13.818Z" fill="#29D305"/>
</g>
<defs>
<clipPath id="clip0">
<path d="M0 0H26.0103V24H0V0Z" fill="white"/>
</clipPath>
</defs>
</svg>

<svg width="27" height="24" fill="none" xmlns="http://www.w3.org/2000/svg"><g clip-path="url(#clip0)"><path d="M2.438 17.63C1.094 17.63 0 16.621 0 15.38v-12c0-1.241 1.094-2.25 2.438-2.25h19.508c1.345 0 2.439 1.009 2.439 2.25v9c0 .414-.365.75-.813.75-.449 0-.813-.336-.813-.75V3.633l-7.857 5.543c-.75.62-1.711.96-2.71.96-.998 0-1.96-.341-2.71-.96L1.627 3.635V15.38c0 .414.364.75.812.75h6.503c.449 0 .813.336.813.75s-.364.75-.813.75H2.438zm8.058-9.627l.053.041a2.556 2.556 0 001.643.591c.606 0 1.19-.21 1.643-.591a.735.735 0 01.052-.04l7.62-5.374H2.876l7.62 5.373z" fill="#000"/><path d="M18.695 22.88a.886.886 0 01-.364-.079.743.743 0 01-.449-.671v-1.5h-4.064c-1.345 0-2.438-1.009-2.438-2.25v-1.5c0-1.241 1.093-2.25 2.438-2.25h4.064v-1.5c0-.286.172-.543.45-.671a.869.869 0 01.85.071l6.504 4.5a.735.735 0 01.325.6.735.735 0 01-.325.6l-6.502 4.5a.869.869 0 01-.49.15zm-4.877-6.75c-.449 0-.813.336-.813.75v1.5c0 .414.364.75.813.75h4.877c.449 0 .813.336.813.75v.75l4.335-3-4.335-3v.75c0 .414-.364.75-.813.75h-4.877z" fill="#29D305"/></g><defs><clipPath id="clip0"><path d="M0 0h26.01v24H0V0z" fill="#fff"/></clipPath></defs></svg>
